X: 162
T: Delicta iuventutis
N: Derived from Rue2004-Delicta_iuventutis.krn
C: Pierre de la Rue
%%abc-version 2.0
%%abcx-abcm2ps-target-version 5.9.1 (29 Sep 2008)
%%abc-creator hum2abc beta
%%abcx-conversion-date 2019/02/17 08:01:16
%%abc-edited-by Jesse Rodin
%%abc-edited-by Chris Gage 01-02-2013
%%abcx-initial-encoding-date 2013/07/18/
%%humdrum-veritas 3597582093
%%humdrum-veritas-data 3104828335
%%linebreak <none>
%%barnumbers 0
L: 1/4
M: 2/1
Q: 1/2=120
%%staves [1 2 3 4]
V: 1 clef=treble
V: 2 clef=treble-8
V: 3 clef=treble-8
V: 4 clef=bass
K: C
[V:1] z8 | 
[V:2] e4e4- | 
[V:3] z8 | 
[V:4] z8 | 
[V:1] E4E4- | 
[V:2] e2dcc2BA | 
[V:3] z8 | 
[V:4] z8 | 
[V:1] E2DCC2B,A, | 
[V:2] A4e4- | 
[V:3] z8 | 
[V:4] z8 | 
[V:1] A,4A4- | 
[V:2] e4f4- | 
[V:3] z8 | 
[V:4] z8 | 
[V:1] A4d4- | 
[V:2] f2e2d2c2 | 
[V:3] z8 | 
[V:4] z8 | 
[V:1] d2c2B2A2 | 
[V:2] B2A2G4- | 
[V:3] z8 | 
[V:4] z8 | 
[V:1] G2F2E4- | 
[V:2] G4c4 | 
[V:3] z8 | 
[V:4] z8 | 
[V:1] E4A4 | 
[V:2] c2c4BA | 
[V:3] z8 | 
[V:4] z8 | 
[V:1] A4A4 | 
[V:2] c2F2f4 | 
[V:3] z8 | 
[V:4] z8 | 
[V:1] G6FE | 
[V:2] e8- | 
[V:3] z8 | 
[V:4] z8 | 
[V:1] G2C2G4 | 
[V:2] e4e4- | 
[V:3] z8 | 
[V:4] z8 | 
[V:1] G2F4ED | 
[V:2] e2dcd4 | 
[V:3] z8 | 
[V:4] z8 | 
[V:1] C8 | 
[V:2] e8 | 
[V:3] A6A2 | 
[V:4] z4A,,4- | 
[V:1] z8 | 
[V:2] z8 | 
[V:3] A4c4 | 
[V:4] A,,2A,,2A,,4 | 
[V:1] z8 | 
[V:2] z8 | 
[V:3] B2c3BBA | 
[V:4] E,8 | 
[V:1] z8 | 
[V:2] z8 | 
[V:3] G4A4 | 
[V:4] E,4F,4 | 
[V:1] z8 | 
[V:2] z8 | 
[V:3] G2A2B2c2 | 
[V:4] E,2F,3E,E,D, | 
[V:1] z8 | 
[V:2] z8 | 
[V:3] A2G2z2B2 | 
[V:4] C,4D,4 | 
[V:1] z8 | 
[V:2] z8 | 
[V:3] A2d4c2- | 
[V:4] C,2D,2E,2F,2 | 
[V:1] z8 | 
[V:2] z8 | 
[V:3] cBB2c4- | 
[V:4] D,4C,4 | 
[V:1] G8- | 
[V:2] e8- | 
[V:3] c4B4- | 
[V:4] E,8- | 
[V:1] G4A4 | 
[V:2] e4e4 | 
[V:3] B4A4 | 
[V:4] E,4A,,4 | 
[V:1] A8 | 
[V:2] e8- | 
[V:3] A8- | 
[V:4] A,,8- | 
[V:1] z4A4 | 
[V:2] e8 | 
[V:3] A8 | 
[V:4] A,,8 | 
[V:1] G4c4 | 
[V:2] z4e4 | 
[V:3] z8 | 
[V:4] z8 | 
[V:1] B2A4GF | 
[V:2] d4f4 | 
[V:3] z8 | 
[V:4] z8 | 
[V:1] G2C2C4 | 
[V:2] e8- | 
[V:3] z8 | 
[V:4] z8 | 
[V:1] z4G4 | 
[V:2] e8 | 
[V:3] z8 | 
[V:4] z8 | 
[V:1] F2G4FE | 
[V:2] z4e4 | 
[V:3] z8 | 
[V:4] z8 | 
[V:1] F2G2C2c2- | 
[V:2] d2e4dc | 
[V:3] z8 | 
[V:4] z8 | 
[V:1] cBB2c2BA | 
[V:2] d2e2A2e2- | 
[V:3] z8 | 
[V:4] z8 | 
[V:1] G2B4A2- | 
[V:2] edd2e2A2 | 
[V:3] z8 | 
[V:4] z8 | 
[V:1] A^GG2A4 | 
[V:2] B4A4 | 
[V:3] z4c4- | 
[V:4] z4A,,4 | 
[V:1] z8 | 
[V:2] z8 | 
[V:3] c4B4 | 
[V:4] E,8 | 
[V:1] z8 | 
[V:2] z8 | 
[V:3] G4A4 | 
[V:4] E,4F,4 | 
[V:1] z8 | 
[V:2] z8 | 
[V:3] z2E2F4 | 
[V:4] E,2C,2D,4 | 
[V:1] z8 | 
[V:2] z8 | 
[V:3] E3FG2C2- | 
[V:4] C,4E,3F, | 
[V:1] z8 | 
[V:2] z8 | 
[V:3] C2G2A2c2- | 
[V:4] G,2C,4E,2 | 
[V:1] z8 | 
[V:2] z8 | 
[V:3] cBB2c2BA | 
[V:4] D,4z2C,2 | 
[V:1] z8 | 
[V:2] z8 | 
[V:3] G4c4 | 
[V:4] B,,2G,,2A,,4 | 
[V:1] z8 | 
[V:2] z8 | 
[V:3] B2G4FE | 
[V:4] G,,4z2G,2- | 
[V:1] z8 | 
[V:2] z8 | 
[V:3] G4F4 | 
[V:4] G,F,E,4D,2 | 
[V:1] z4c4 | 
[V:2] e8 | 
[V:3] E8- | 
[V:4] E,4A,,4 | 
[V:1] B2G4B2 | 
[V:2] e4e4 | 
[V:3] E8 | 
[V:4] z8 | 
[V:1] A4G4 | 
[V:2] f4e4 | 
[V:3] z8 | 
[V:4] z8 | 
[V:1] z2A2B2c2 | 
[V:2] f4e2c2- | 
[V:3] z8 | 
[V:4] z8 | 
[V:1] A2G2BAGF | 
[V:2] c2e2d4 | 
[V:3] z8 | 
[V:4] z8 | 
[V:1] E8- | 
[V:2] c8 | 
[V:3] z4A4 | 
[V:4] C,8 | 
[V:1] E8 | 
[V:2] z8 | 
[V:3] G2E4G2 | 
[V:4] C,4C,4 | 
[V:1] z8 | 
[V:2] z8 | 
[V:3] F4E3F/E/ | 
[V:4] D,4C,2A,,2- | 
[V:1] z8 | 
[V:2] z8 | 
[V:3] FEA4^G2 | 
[V:4] A,,2C,2B,,4 | 
[V:1] z8 | 
[V:2] z8 | 
[V:3] A8 | 
[V:4] A,,8 | 
[V:1] z4E4 | 
[V:2] e8 | 
[V:3] z4A4 | 
[V:4] A,,8 | 
[V:1] G4G4 | 
[V:2] e4e4 | 
[V:3] B4B4 | 
[V:4] E,4E,4 | 
[V:1] A4A4- | 
[V:2] c4d4 | 
[V:3] A4A4- | 
[V:4] F,3E,D,2C,B,, | 
[V:1] A4c4- | 
[V:2] e8- | 
[V:3] A4A4- | 
[V:4] A,,8 | 
[V:1] c2BAB2G2 | 
[V:2] e8 | 
[V:3] A2GFG2E2 | 
[V:4] z4E,4- | 
[V:1] G4z4 | 
[V:2] z2e2f4 | 
[V:3] E4z4 | 
[V:4] E,2D,C,D,2B,,2 | 
[V:1] z2G2G2G2 | 
[V:2] e4z2e2 | 
[V:3] c4c4 | 
[V:4] C,8 | 
[V:1] A3GE2G2 | 
[V:2] e4e4 | 
[V:3] c4c4 | 
[V:4] z2C,2C,2C,2 | 
[V:1] A2c4B2 | 
[V:2] f4g4- | 
[V:3] c4d4 | 
[V:4] F,2A,2G,4 | 
[V:1] c3BG2A2 | 
[V:2] g2e2e4 | 
[V:3] c8 | 
[V:4] C,6B,,A,, | 
[V:1] B8- | 
[V:2] z2d2e2d2- | 
[V:3] z8 | 
[V:4] G,,8- | 
[V:1] B8 | 
[V:2] d2g3fed | 
[V:3] z8 | 
[V:4] G,,8 | 
[V:1] z2A2B2c2- | 
[V:2] c4d2e2- | 
[V:3] z8 | 
[V:4] z8 | 
[V:1] cBAGF2G2- | 
[V:2] edcBd2cB | 
[V:3] z8 | 
[V:4] z8 | 
[V:1] G^FF2G4 | 
[V:2] A4G4 | 
[V:3] z4z2G2 | 
[V:4] z2D,2E,4 | 
[V:1] z2E2F2D2 | 
[V:2] z8 | 
[V:3] A4B4 | 
[V:4] C,4D,4 | 
[V:1] E4A,4 | 
[V:2] z8 | 
[V:3] c6BA | 
[V:4] A,,8 | 
[V:1] z8 | 
[V:2] z8 | 
[V:3] B2G2A4 | 
[V:4] z2E,2F,2D,2 | 
[V:1] z8 | 
[V:2] z8 | 
[V:3] G2B2c2A2- | 
[V:4] E,4A,,2C,2- | 
[V:1] z2B2c2A2 | 
[V:2] z2d2e2c2 | 
[V:3] A2G4^F2 | 
[V:4] C,D,B,,2A,,4 | 
[V:1] B2G4FE | 
[V:2] B2d3cc2- | 
[V:3] G8 | 
[V:4] G,,8 | 
[V:1] D4E4 | 
[V:2] cBB2c2G2 | 
[V:3] z8 | 
[V:4] z8 | 
[V:1] z2D2E2F2 | 
[V:2] A2B2c2BA | 
[V:3] z8 | 
[V:4] z4z2D,2 | 
[V:1] G2FED3E | 
[V:2] G2c4B2 | 
[V:3] z8 | 
[V:4] E,2F,2G,4 | 
[V:1] E4z4 | 
[V:2] c4z4 | 
[V:3] z2G2A2B2 | 
[V:4] C,2E,2D,4 | 
[V:1] z8 | 
[V:2] z8 | 
[V:3] c2BAG2c2 | 
[V:4] C,4z2C,2 | 
[V:1] z8 | 
[V:2] z8 | 
[V:3] B2c2A2d2 | 
[V:4] D,2E,2F,2G,2 | 
[V:1] z8 | 
[V:2] z8 | 
[V:3] e2dcB3A | 
[V:4] C,2E,2D,4 | 
[V:1] G4G4 | 
[V:2] e4e4 | 
[V:3] c8 | 
[V:4] C,8 | 
[V:1] A4G2A2- | 
[V:2] f4e2f2- | 
[V:3] z8 | 
[V:4] z8 | 
[V:1] AGFEF4 | 
[V:2] fedcd4 | 
[V:3] z8 | 
[V:4] D,4D,4 | 
[V:1] E8 | 
[V:2] e6dc | 
[V:3] c4c4 | 
[V:4] A,,4A,,4 | 
[V:1] z4E4 | 
[V:2] B2c3BBA | 
[V:3] G4G4 | 
[V:4] E,8 | 
[V:1] G4G4 | 
[V:2] G8 | 
[V:3] B8 | 
[V:4] z4E,4 | 
[V:1] A4B4 | 
[V:2] z4e4 | 
[V:3] z4B4 | 
[V:4] F,4E,4 | 
[V:1] G6FE | 
[V:2] e4e4- | 
[V:3] c4B4- | 
[V:4] z4E,4- | 
[V:1] G2A2B4 | 
[V:2] e2dcB2e2- | 
[V:3] B4B4 | 
[V:4] E,4E,4- | 
[V:1] E4A4 | 
[V:2] edcBA4 | 
[V:3] c4d4 | 
[V:4] E,4F,4 | 
[V:1] G4c4 | 
[V:2] B4z2A2 | 
[V:3] e8 | 
[V:4] E,4A,4 | 
[V:1] B2G2A4- | 
[V:2] B2c2d4 | 
[V:3] e4d2B2 | 
[V:4] G,2E,2F,4 | 
[V:1] A2^G^FG4 | 
[V:2] e8 | 
[V:3] c4B4 | 
[V:4] E,8 | 
[V:1] A8 | 
[V:2] z4c4 | 
[V:3] A8- | 
[V:4] z4F,4- | 
[V:1] z4c4- | 
[V:2] d4f4 | 
[V:3] A8 | 
[V:4] F,2E,D,F,2E,D, | 
[V:1] c2BAc2BA | 
[V:2] e4e4 | 
[V:3] z4c4 | 
[V:4] C,4C,4 | 
[V:1] G4c4 | 
[V:2] e8 | 
[V:3] c2c4BA | 
[V:4] C,8 | 
[V:1] B4G4- | 
[V:2] z4e4 | 
[V:3] G4G4 | 
[V:4] z4C,4 | 
[V:1] G2FEG2FE | 
[V:2] e2e4dc | 
[V:3] G8 | 
[V:4] C,2D,2E,2F,2 | 
[V:1] D4z2G2- | 
[V:2] B3cdcBA | 
[V:3] z4G4 | 
[V:4] G,8 | 
[V:1] G2FEG4 | 
[V:2] G4G4 | 
[V:3] G2A2B2c2 | 
[V:4] E,8 | 
[V:1] F8 | 
[V:2] A8 | 
[V:3] d8 | 
[V:4] D,8 | 
[V:1] D4E4 | 
[V:2] z4G4 | 
[V:3] B8 | 
[V:4] z4E,4 | 
[V:1] z2A4G2 | 
[V:2] c6BA | 
[V:3] A8 | 
[V:4] F,6E,2 | 
[V:1] F2E2D4 | 
[V:2] B2A4^G2 | 
[V:3] z4B4 | 
[V:4] D,2C,2B,,4 | 
[V:1] C4E4- | 
[V:2] A8 | 
[V:3] c6B2 | 
[V:4] A,,8 | 
[V:1] E4F4 | 
[V:2] z2e4d2 | 
[V:3] A2G2F4 | 
[V:4] z4D,4 | 
[V:1] G4E2F2 | 
[V:2] e3dc2BA | 
[V:3] E8 | 
[V:4] C,6D,2 | 
[V:1] G4A4 | 
[V:2] G2c4d2 | 
[V:3] z4A4 | 
[V:4] E,4F,4 | 
[V:1] B4c4 | 
[V:2] B2E2c3d | 
[V:3] G6A2 | 
[V:4] E,8- | 
[V:1] B2G3FGA | 
[V:2] e8- | 
[V:3] B4c4 | 
[V:4] E,8- | 
[V:1] B2A4^G2 | 
[V:2] e8- | 
[V:3] B8 | 
[V:4] E,8 | 
[V:1] A8 ||  
[V:2] e8 ||  
[V:3] A8 ||  
[V:4] A,,8 ||  
[V:1]  [K:C] [K:clef=treble][M:2/1]z8 | 
[V:2]  [K:C] [K:clef=treble-8][M:2/1]z8 | 
[V:3]  [K:C] [K:clef=treble-8][M:2/1]G4G2A2- | 
[V:4]  [K:C] [K:clef=bass][M:2/1]z4C,4- | 
[V:1] z8 | 
[V:2] z8 | 
[V:3] AGGFE4 | 
[V:4] C,4C,4 | 
[V:1] z8 | 
[V:2] z8 | 
[V:3] E2F4E2- | 
[V:4] C,2D,3C,C,B,, | 
[V:1] z8 | 
[V:2] z8 | 
[V:3] E2A4G2 | 
[V:4] A,,2C,2B,,4 | 
[V:1] z8 | 
[V:2] z8 | 
[V:3] c8 | 
[V:4] A,,2F,3E,E,D, | 
[V:1] z8 | 
[V:2] z8 | 
[V:3] c4c4 | 
[V:4] C,4F,4 | 
[V:1] z8 | 
[V:2] z8 | 
[V:3] c3BBAG2- | 
[V:4] E,8 | 
[V:1] z8 | 
[V:2] z8 | 
[V:3] G2c2B2c2- | 
[V:4] z2A,2G,2A,2- | 
[V:1] c4c4 | 
[V:2] z8 | 
[V:3] cBAGA4 | 
[V:4] A,G,F,E,F,4 | 
[V:1] B6AG | 
[V:2] z8 | 
[V:3] G8 | 
[V:4] G,4G,,4 | 
[V:1] A2G4FE | 
[V:2] c4c4 | 
[V:3] z8 | 
[V:4] z8 | 
[V:1] D8 | 
[V:2] B6AG | 
[V:3] z8 | 
[V:4] z8 | 
[V:1] z4G4 | 
[V:2] A2G4c2- | 
[V:3] z8 | 
[V:4] z8 | 
[V:1] G4A2c2- | 
[V:2] cBB2c2e2- | 
[V:3] z8 | 
[V:4] z8 | 
[V:1] cBB2c2BA | 
[V:2] edd2e4- | 
[V:3] z8 | 
[V:4] z8 | 
[V:1] G4z2G2- | 
[V:2] e2dcB2E2 | 
[V:3] z8 | 
[V:4] z8 | 
[V:1] G2FEF2E2 | 
[V:2] e4z2e2- | 
[V:3] z8 | 
[V:4] z8 | 
[V:1] C2G2F2G2- | 
[V:2] e2dcd2e2- | 
[V:3] z8 | 
[V:4] z8 | 
[V:1] G2FEF2G2 | 
[V:2] e2c2d2e2 | 
[V:3] z8 | 
[V:4] z8 | 
[V:1] A4A4 | 
[V:2] f2d2f4 | 
[V:3] z8 | 
[V:4] D,4D,4 | 
[V:1] G8 | 
[V:2] e8 | 
[V:3] G4G4 | 
[V:4] E,4E,4 | 
[V:1] z8 | 
[V:2] z8 | 
[V:3] A4A4 | 
[V:4] F,4F,4 | 
[V:1] z8 | 
[V:2] z8 | 
[V:3] B4B4 | 
[V:4] G,2F,E,D,4 | 
[V:1] z8 | 
[V:2] z8 | 
[V:3] c2BAG4 | 
[V:4] C,4z2C,2 | 
[V:1] z8 | 
[V:2] z8 | 
[V:3] z2A3GG2 | 
[V:4] D,2F,4E,2 | 
[V:1] z8 | 
[V:2] z8 | 
[V:3] A2c2B2d2- | 
[V:4] F,2A,3G,G,2- | 
[V:1] z8 | 
[V:2] z8 | 
[V:3] d2c3BB2 | 
[V:4] G,F,E,2D,4 | 
[V:1] G6FE | 
[V:2] e6dc | 
[V:3] c8 | 
[V:4] C,8 | 
[V:1] E4E2F2- | 
[V:2] c4c2d2- | 
[V:3] z8 | 
[V:4] z8 | 
[V:1] FEDCD4 | 
[V:2] dcBAB4 | 
[V:3] z8 | 
[V:4] z8 | 
[V:1] C4z2c2 | 
[V:2] c4z2e2 | 
[V:3] z8 | 
[V:4] z8 | 
[V:1] c6d2- | 
[V:2] e4e2f2- | 
[V:3] z8 | 
[V:4] z8 | 
[V:1] dcBAB4 | 
[V:2] fedcd4 | 
[V:3] z8 | 
[V:4] z8 | 
[V:1] E3FGAB2- | 
[V:2] e4z4 | 
[V:3] c4c2d2- | 
[V:4] z8 | 
[V:1] B2A3FG2 | 
[V:2] z8 | 
[V:3] dcBAB4 | 
[V:4] z8 | 
[V:1] C4z4 | 
[V:2] z8 | 
[V:3] E3FGAB2- | 
[V:4] C,4C,2D,2- | 
[V:1] z8 | 
[V:2] z8 | 
[V:3] B2A3^G^G2 | 
[V:4] D,C,B,,A,,B,,4 | 
[V:1] z8 | 
[V:2] z8 | 
[V:3] A8 | 
[V:4] A,,8 | 
[V:1] E4E4 | 
[V:2] c4c4 | 
[V:3] G4G4 | 
[V:4] C,4C,4 | 
[V:1] F4E4 | 
[V:2] d4c4 | 
[V:3] A4G4 | 
[V:4] F,4C,4 | 
[V:1] D4D4 | 
[V:2] B4A3G | 
[V:3] F4F4 | 
[V:4] D,4D,4 | 
[V:1] C4z2E2 | 
[V:2] A8 | 
[V:3] E8 | 
[V:4] A,,8 | 
[V:1] G4G4 | 
[V:2] z2e2e4 | 
[V:3] z8 | 
[V:4] z8 | 
[V:1] A4c4- | 
[V:2] f4e2c2- | 
[V:3] z8 | 
[V:4] z8 | 
[V:1] c4c4 | 
[V:2] cde2A2e2 | 
[V:3] z8 | 
[V:4] z8 | 
[V:1] B2G3AB2 | 
[V:2] d2e3fg2- | 
[V:3] z8 | 
[V:4] z8 | 
[V:1] E2G2F4 | 
[V:2] gfe4d2 | 
[V:3] z8 | 
[V:4] z4D,4 | 
[V:1] E4z4 | 
[V:2] e4z4 | 
[V:3] A4G2E2 | 
[V:4] C,2A,,2B,,4 | 
[V:1] z4E4- | 
[V:2] c4c4- | 
[V:3] F4E4- | 
[V:4] A,,8- | 
[V:1] E2DCE2F2 | 
[V:2] c2BAc2d2 | 
[V:3] E4z4 | 
[V:4] A,,8 | 
[V:1] G6FE | 
[V:2] e4e4- | 
[V:3] z8 | 
[V:4] z8 | 
[V:1] G2A2B2c2- | 
[V:2] e2dcd2c2 | 
[V:3] z8 | 
[V:4] z4z2E,2 | 
[V:1] cBAGA4 | 
[V:2] A2c4d2 | 
[V:3] z4z2A2 | 
[V:4] F,4F,4 | 
[V:1] G8 | 
[V:2] e4E4 | 
[V:3] B4B4 | 
[V:4] E,4G,4 | 
[V:1] z8 | 
[V:2] z8 | 
[V:3] A4c4 | 
[V:4] F,4E,2A,2- | 
[V:1] z8 | 
[V:2] z8 | 
[V:3] B4c2d2 | 
[V:4] A,2G,2F,2D,2 | 
[V:1] z8 | 
[V:2] z8 | 
[V:3] dcBAG4 | 
[V:4] F,4E,4 | 
[V:1] c8 | 
[V:2] e8 | 
[V:3] A8 | 
[V:4] z2A,,2A,,4 | 
[V:1] c4c4 | 
[V:2] e4c4 | 
[V:3] z8 | 
[V:4] C,4A,,4 | 
[V:1] B4G4 | 
[V:2] d2g4fe | 
[V:3] d6cB | 
[V:4] G,,4z2G,2 | 
[V:1] z2G4G2 | 
[V:2] d2d2d2e2- | 
[V:3] A2B4c2- | 
[V:4] F,2G,3F,E,D, | 
[V:1] A2c4BA | 
[V:2] edcBc4 | 
[V:3] cBAG^F3E | 
[V:4] C,4A,,4 | 
[V:1] B4B2B2 | 
[V:2] z2d2d2d2 | 
[V:3] G8 | 
[V:4] G,,2G,,2G,,2G,,2 | 
[V:1] AGFED4 | 
[V:2] f6ed | 
[V:3] z2F2F2F2 | 
[V:4] D,8 | 
[V:1] z2A4A2- | 
[V:2] f2edc2d2 | 
[V:3] D4z2d2- | 
[V:4] z2F,4D,2- | 
[V:1] A2A2B2B2 | 
[V:2] A4z2G2 | 
[V:3] d2d4d2 | 
[V:4] D,2F,2G,2G,2 | 
[V:1] G4z2A2- | 
[V:2] c2c2A4 | 
[V:3] e2e2c4 | 
[V:4] C,4z2F,2- | 
[V:1] A2A4B2- | 
[V:2] z2A4G2 | 
[V:3] z2d4d2- | 
[V:4] F,2D,4G,2- | 
[V:1] B2G3ABc | 
[V:2] B2c3BG2 | 
[V:3] d2e4c2 | 
[V:4] G,2C,2E,4 | 
[V:1] d2c4B2 | 
[V:2] A2G2A2B2 | 
[V:3] f2e2d4 | 
[V:4] D,2E,2F,2G,2 | 
[V:1] c4B4 | 
[V:2] G8 | 
[V:3] c4z4 | 
[V:4] C,4z2G,2 | 
[V:1] c4B4 | 
[V:2] z4z2G2 | 
[V:3] z2c2d4- | 
[V:4] A,4G,4 | 
[V:1] z4z2A2 | 
[V:2] F2G3^F^F2 | 
[V:3] d2B2c4 | 
[V:4] z2G,,2A,,4 | 
[V:1] B2d4c2 | 
[V:2] G4B2c2 | 
[V:3] B4z2A2 | 
[V:4] G,,4z4 | 
[V:1] B2G2A2B2 | 
[V:2] d3ef2d2 | 
[V:3] B2d4B2 | 
[V:4] z2G,2F,2G,2 | 
[V:1] G4c4 | 
[V:2] e2d2e2f2 | 
[V:3] c2B2A4 | 
[V:4] C,2G,3F,F,2 | 
[V:1] B2B3AA2 | 
[V:2] d8 | 
[V:3] G2G4^F2 | 
[V:4] G,2G,,2D,4 | 
[V:1] B8 | 
[V:2] z2d2d2d2 | 
[V:3] G8 | 
[V:4] G,,8 | 
[V:1] z2G2G2G2 | 
[V:2] e4e4 | 
[V:3] z8 | 
[V:4] z8 | 
[V:1] A4A4 | 
[V:2] c4A4 | 
[V:3] z8 | 
[V:4] z8 | 
[V:1] F4D4 | 
[V:2] z2d3ef2 | 
[V:3] z8 | 
[V:4] z8 | 
[V:1] z2G3AB2 | 
[V:2] e4g4 | 
[V:3] z8 | 
[V:4] z8 | 
[V:1] A4c4 | 
[V:2] f2ede2c2 | 
[V:3] z8 | 
[V:4] z8 | 
[V:1] B2AGA2G2- | 
[V:2] d6cB | 
[V:3] z8 | 
[V:4] z8 | 
[V:1] G2^F2G4 | 
[V:2] A4G4 | 
[V:3] z8 | 
[V:4] z4G,,4 | 
[V:1] z8 | 
[V:2] z8 | 
[V:3] C4F4 | 
[V:4] C,4D,4 | 
[V:1] z8 | 
[V:2] z8 | 
[V:3] G4A4 | 
[V:4] E,4C,2D,2- | 
[V:1] z8 | 
[V:2] z8 | 
[V:3] A4^G4 | 
[V:4] D,C,B,,A,,B,,4 | 
[V:1] z8 | 
[V:2] z8 | 
[V:3] A8 | 
[V:4] A,,4z2D,2- | 
[V:1] z8 | 
[V:2] z8 | 
[V:3] A4B4- | 
[V:4] D,C,C,2D,2G,,2- | 
[V:1] z8 | 
[V:2] z8 | 
[V:3] B2AGA4 | 
[V:4] G,,2G,3F,F,2 | 
[V:1] z8 | 
[V:2] z8 | 
[V:3] G4z2c2- | 
[V:4] G,2C,2G,2F,E, | 
[V:1] z8 | 
[V:2] z8 | 
[V:3] c2B2c2BA | 
[V:4] D,4C,4- | 
[V:1] z8 | 
[V:2] z8 | 
[V:3] G2A2E4 | 
[V:4] C,4z2C,2 | 
[V:1] z8 | 
[V:2] z8 | 
[V:3] z2c4B2 | 
[V:4] D,2E,2F,2G,2 | 
[V:1] z8 | 
[V:2] z8 | 
[V:3] c2BAG2A2 | 
[V:4] A,2G,F,E,2F,2- | 
[V:1] z8 | 
[V:2] z8 | 
[V:3] D2G2F2ED | 
[V:4] F,2E,4D,2 | 
[V:1] G8 | 
[V:2] e8 | 
[V:3] C8 | 
[V:4] E,8 | 
[V:1] E4F4 | 
[V:2] c4d4 | 
[V:3] z8 | 
[V:4] z8 | 
[V:1] E8 | 
[V:2] e2dcB4 | 
[V:3] G8 | 
[V:4] E,8 | 
[V:1] z4A4 | 
[V:2] A8 | 
[V:3] E4F4 | 
[V:4] C,4D,4 | 
[V:1] G4c4 | 
[V:2] z4e4 | 
[V:3] E8 | 
[V:4] E,4A,,4 | 
[V:1] B2AGA4 | 
[V:2] d2cBA2F2 | 
[V:3] z4c4 | 
[V:4] z4A,4 | 
[V:1] D8 | 
[V:2] G4D4 | 
[V:3] B2AGA4 | 
[V:4] G,2G,4F,2 | 
[V:1] z4B4 | 
[V:2] z4d4 | 
[V:3] G8- | 
[V:4] G,6G,,2 | 
[V:1] B2d4B2 | 
[V:2] d4d4 | 
[V:3] G8 | 
[V:4] G,,8 | 
[V:1] A4c4 | 
[V:2] f4e4 | 
[V:3] z8 | 
[V:4] z8 | 
[V:1] B2A4GF | 
[V:2] d3cA2B2 | 
[V:3] z4F4 | 
[V:4] z4D,4 | 
[V:1] E4z2G2 | 
[V:2] cdefe4- | 
[V:3] G2A2B4 | 
[V:4] C,2A,,2E,4 | 
[V:1] A4c4- | 
[V:2] e4e4 | 
[V:3] c3BA2GF | 
[V:4] A,,6A,,2 | 
[V:1] c2B2A2GF | 
[V:2] c4d4 | 
[V:3] E4F4 | 
[V:4] A,,4D,4 | 
[V:1] E2D2F4 | 
[V:2] e2f2d4 | 
[V:3] A8 | 
[V:4] C,2D,3E,F,2 | 
[V:1] E4D4 | 
[V:2] z2c4B2 | 
[V:3] G4F4 | 
[V:4] C,4D,4 | 
[V:1] A4F2G2- | 
[V:2] c4d4 | 
[V:3] E4D4 | 
[V:4] A,,4B,,4 | 
[V:1] G2E2E4- | 
[V:2] e4c3B | 
[V:3] G4A4 | 
[V:4] C,4C,4 | 
[V:1] E2D2D4 | 
[V:2] A8 | 
[V:3] F8 | 
[V:4] D,8 | 
[V:1] E8- | 
[V:2] z4B4- | 
[V:3] E8- | 
[V:4] z4G,4- | 
[V:1] E8- | 
[V:2] B8 | 
[V:3] E8- | 
[V:4] G,4G,,4 | 
[V:1] E8- | 
[V:2] c8 | 
[V:3] E8- | 
[V:4] A,,8 | 
[V:1] E8 |]  
[V:2] B8 |]  
[V:3] E8 |]  
[V:4] E,8 |]  



